!! 00000] TT[WS
!!!OTL: Wunu guandeng
!!!ARE: Asia, China,ÿShanxi Wuqian
!! Ethnic Group: Han
!! WI, 174
!!!SCT: J0207
!!!YEM: Copyright 1995, estate of Helmut Schaffrath.
**kern
*ICvox
*Ivox
*M2/4
*k[f#c#]
*D:
{8dd
16dd
16ee
4b
=1
16f#
16e
8f#
4a
=2
8.dd
16dd
16b
16dd
16b
16a
=3
8f#
16e
16f#
4a}
=4
{8.a
16b
8a
8b
=5
4.dd
16b
16dd
=6
2a}
=7
{8.d
16e
8f#
8f#
=8
8r
16e
16f#
4e
=9
8.f#
16e
8f#
8f#
=10
8dd
16b
16dd
4a}
==
!!!AGN: Xiaodiao. Fengsuge, Qingge
!!!ONB: ESAC (Essen Associative Code) Database: CHINA
!!!AMT: simple duple
!!!AIN: vox
!!!EED: Helmut Schaffrath
!!!EEV: 1.0
*-
